WordPress/Jetpack/AppImages.xcassets/Social/icon-tumblr.imageset/icon-tumblr-dark.svg

<svg fill="none" height="32" viewBox="0 0 32 32" width="32" xmlns="http://www.w3.org/2000/svg"><rect fill="#fff" height="32" rx="16" width="32"/><path d="m17.7333 24c-2.4 0-4.2-1.2333-4.2-4.2v-4.7333h-2.2v-2.5667c2.4-.6333 3.4-2.7 3.5333-4.5h2.5v4.0667h2.9v3h-2.9v4.1333c0 1.2333.6334 1.6667 1.6334 1.6667h1.4v3.1333z" fill="#001935"/></svg>

<svg width="32" height="32" viewBox="0 0 32 32" fill="none" xmlns="http://www.w3.org/2000/svg">
<rect width="32" height="32" rx="16" fill="#00B8FF"/>
<path d="M17.7333 24C15.3333 24 13.5333 22.7667 13.5333 19.8V15.0667H11.3333V12.5C13.7333 11.8667 14.7333 9.8 14.8666 8H17.3666V12.0667H20.2666V15.0667H17.3666V19.2C17.3666 20.4333 18 20.8667 19 20.8667H20.4V24H17.7333Z" fill="#001935"/>
</svg>
